Gruvbox-Plus-Dark/actions/24/format-text-symbol.svg

<?xml version="1.0" standalone="no"?><!-- Generator: Gravit.io --><svg xmlns="http://www.w3.org/2000/svg" xmlns:xlink="http://www.w3.org/1999/xlink" style="isolation:isolate" viewBox="0 0 24 24" width="24" height="24"><path d=" M 15.444735 19.030094 C 13.739635 19.014803 12.731538 17.834006 12.749155 15.869408 C 12.762333 14.399879 12.972675 12.70643 13.236556 10.563738 C 13.338887 9.734524 13.450047 8.841024 13.560636 7.873254 L 11.626567 7.85591 L 11.521168 8.843119 C 10.731301 16.223469 10.435876 18.985177 7.688244 18.960537 C 6.858178 18.953094 5.713986 18.225751 5.726054 16.879989 C 5.735029 15.879125 6.19388 15.551517 6.678899 15.204339 C 7.467462 14.640798 8.774675 13.70645 9.359564 7.83558 L 8.695347 7.829624 C 7.755954 7.8212 7.083051 8.27768 6.576178 9.267478 C 6.351825 9.624832 5.993824 10.024723 5.259388 9.797401 C 5.147378 9.762962 5.05545 9.682251 5.006809 9.575638 C 4.957632 9.469743 4.955725 9.347949 5.001561 9.240567 C 5.421311 8.25824 5.844975 7.391473 6.294661 6.475429 L 6.314429 6.433522 C 6.705412 5.668372 7.465832 4.930465 12.021703 4.971319 L 18.622621 5.030513 C 18.85047 5.032556 19.033522 5.218921 19.031478 5.44677 L 19.01298 7.509557 C 19.010937 7.737406 18.824573 7.920458 18.596723 7.918415 L 16.085899 7.895899 C 15.64052 12.472485 15.4818 15.218915 15.946282 15.735517 C 16.0149 15.813287 16.122583 15.859638 16.462531 15.862686 C 17.012057 15.867614 17.501541 15.02248 17.506136 14.510083 C 17.50819 14.281114 17.693424 14.099172 17.922393 14.101226 L 18.541229 14.106775 C 18.770199 14.108828 18.95214 14.294063 18.950087 14.523032 C 18.92308 17.534701 17.744329 19.050715 15.444735 19.030094 Z " id="format-text-symbol" fill="#ebdbb2"/></svg>

<svg width="24" height="24" version="1.1" viewBox="0 0 24 24" xmlns="http://www.w3.org/2000/svg">
  <defs>
    <style type="text/css">.ColorScheme-Text { color:#ebdbb2; } .ColorScheme-Highlight { color:#458588; }</style>
  </defs>
  <path class="ColorScheme-Text" d="m12.75 15.85c0.01312-1.463 0.2225-3.149 0.4852-5.282 0.1019-0.8255 0.2125-1.715 0.3226-2.678l-1.925-0.01727-0.1049 0.9827c-0.7863 7.347-1.08 10.1-3.816 10.07-0.8263-0.0074-1.965-0.7315-1.953-2.071 0.00893-0.9963 0.4657-1.322 0.9485-1.668 0.785-0.561 2.086-1.491 2.669-7.335l-0.6612-0.00593c-0.9351-0.00839-1.605 0.446-2.11 1.431-0.2233 0.3557-0.5797 0.7538-1.311 0.5275-0.1115-0.03428-0.203-0.1146-0.2514-0.2208-0.04895-0.1054-0.05085-0.2267-0.00522-0.3336 0.4178-0.9779 0.8396-1.841 1.287-2.753l0.01968-0.04172c0.3892-0.7617 1.146-1.496 5.681-1.456l6.571 0.05893c0.2268 0.00203 0.409 0.1876 0.407 0.4144l-0.01841 2.053c-2e-3 0.2268-0.1876 0.409-0.4144 0.407l-2.499-0.02241c-0.4434 4.556-0.6014 7.29-0.139 7.804 0.06831 0.07742 0.1755 0.1236 0.5139 0.1266 0.547 0.0049 1.034-0.8364 1.039-1.346 2e-3 -0.2279 0.1864-0.409 0.4144-0.407l0.616 0.0055c0.2279 2e-3 0.409 0.1864 0.407 0.4144-0.02689 2.998-1.2 4.507-3.194 4.489-1.993-0.01786-2.997-1.193-2.979-3.149z" fill="currentColor"/>
</svg>
